app/public/logo.svg

<svg width="512" height="512" fill="none" xmlns="http://www.w3.org/2000/svg"><circle cx="256" cy="256" r="248" fill="#00cc00"/><path d="M384 160c0-17.7-14.3-32-32-32H160c-17.7 0-32 14.3-32 32v160c0 17.7 14.3 32 32 32h32v48l64-48h96c17.7 0 32-14.3 32-32V160z" fill="#fff"/><rect x="180" y="200" width="120" height="12" rx="6" fill="#00cc00"/><rect x="180" y="240" width="152" height="12" rx="6" fill="#00cc00"/><rect x="180" y="280" width="80" height="12" rx="6" fill="#00cc00"/><path d="M140 180h20v10h-20z" fill="#00cc00"/><path d="M140 180v40h10v-40zm0 40h20v10h-20z" fill="#00cc00"/><circle cx="256" cy="256" r="248" stroke="#009900" stroke-width="8"/></svg>

<svg width="512" height="512" viewBox="0 0 512 512" fill="none" xmlns="http://www.w3.org/2000/svg">
  <!-- Background Circle -->
  <circle cx="256" cy="256" r="248" fill="#4A90E2" />
  
  <!-- Chat Bubble -->
  <path d="M384 160c0-17.7-14.3-32-32-32H160c-17.7 0-32 14.3-32 32v160c0 17.7 14.3 32 32 32h32v48l64-48h96c17.7 0 32-14.3 32-32V160z" 
        fill="white"/>
  
  <!-- AI Text Lines (representing processing) -->
  <rect x="180" y="200" width="120" height="12" rx="6" fill="#4A90E2"/>
  <rect x="180" y="240" width="152" height="12" rx="6" fill="#4A90E2"/>
  <rect x="180" y="280" width="80" height="12" rx="6" fill="#4A90E2"/>
  
  <!-- Circuit Board Pattern (AI representation) -->
  <path d="M140 180 L160 180 L160 190 L140 190 Z" fill="#4A90E2"/>
  <path d="M140 180 L140 220 L150 220 L150 180 Z" fill="#4A90E2"/>
  <path d="M140 220 L160 220 L160 230 L140 230 Z" fill="#4A90E2"/>
  
  <!-- Outer Ring -->
  <circle cx="256" cy="256" r="248" stroke="#2D76CC" stroke-width="8" fill="none"/>
</svg>
